<?xml version="1.0" encoding="UTF-8"?>
<map version="1.10" tiledversion="1.11.2" orientation="orthogonal" renderorder="right-down" width="40" height="23" tilewidth="32" tileheight="32" infinite="0" nextlayerid="3" nextobjectid="1">
 <tileset firstgid="1" source="../../../../map/map0.tsx"/>
 <tileset firstgid="65" source="../../../../map/floor.tsx"/>
 <tileset firstgid="208" source="../../../../tile map/EPIC RPG World Pack - [FREE Demo]Ancient Ruins - Copia/TiledMap Editor/tree.tsx"/>
 <tileset firstgid="592" source="../../../../tile map/EPIC RPG World Pack - [FREE Demo]Ancient Ruins - Copia/TiledMap Editor/tree01.tsx"/>
 <tileset firstgid="976" source="../../../../tile map/EPIC RPG World Pack - [FREE Demo]Ancient Ruins - Copia/TiledMap Editor/map02.tsx"/>
 <layer id="1" name="เลเยอร์ไทล์ 1" width="40" height="23">
  <data encoding="csv">
887,888,889,890,839,632,633,634,635,636,630,631,632,633,634,635,636,637,638,630,631,632,633,634,635,636,637,638,630,631,632,633,634,635,636,839,885,886,887,887,
911,912,913,914,839,656,657,658,659,660,654,655,656,657,658,659,660,661,662,654,655,656,657,658,659,660,661,662,654,655,656,657,658,659,660,839,909,910,911,911,
935,936,937,938,939,680,681,682,683,684,678,679,680,681,682,683,684,685,686,678,679,680,681,682,683,684,685,686,678,679,680,681,682,683,684,932,933,934,935,935,
959,960,961,962,963,164,164,101,100,101,100,101,100,101,100,101,100,101,100,101,100,101,100,101,100,101,100,101,100,101,100,101,100,101,100,956,957,839,839,839,
700,701,702,703,164,976,978,979,977,977,977,977,977,978,979,977,978,979,977,978,979,977,977,977,977,977,977,977,977,977,977,978,979,88,87,756,757,758,759,805,
724,725,726,727,164,994,995,996,995,996,995,996,995,995,995,995,995,995,995,995,995,995,995,995,995,995,995,995,995,995,995,995,996,101,100,780,781,782,783,661,
748,749,750,751,164,1012,1013,1014,1013,1014,1013,1014,995,996,1013,1013,1013,1013,995,1013,1013,1013,1013,1013,1013,1013,1013,1013,1013,1013,1013,995,996,88,87,804,805,806,807,685,
772,773,774,775,100,994,995,996,1013,995,995,995,1013,1014,1014,995,995,995,996,995,995,996,995,995,995,995,996,996,996,996,995,996,996,101,100,660,661,662,663,709,
796,797,798,799,87,1012,995,996,1013,995,1013,1013,1013,995,995,995,995,995,995,995,996,995,1013,1013,1013,995,995,996,1014,1014,996,996,1014,88,87,684,685,686,687,733,
652,653,654,655,100,1030,995,996,1013,1013,1013,995,996,995,1013,1013,995,996,1013,1013,1014,995,1013,1014,995,995,995,996,995,995,996,1014,997,101,100,708,709,710,711,757,
676,677,678,679,87,994,1013,1014,1013,1013,995,1013,1014,995,996,995,1013,1014,995,995,996,995,1013,995,1013,995,995,995,996,995,995,996,997,88,87,732,733,734,735,781,
700,701,702,703,100,994,995,995,996,1014,1013,1013,995,1013,1014,1013,1013,1013,995,995,995,996,995,996,995,996,1013,995,996,995,995,996,997,101,100,756,757,758,759,805,
724,725,726,727,87,994,995,995,996,1014,1013,1014,995,996,995,996,996,996,1013,1013,995,996,995,996,995,995,996,996,996,1013,995,996,1015,88,87,780,781,782,783,685,
748,749,750,751,100,994,995,1013,1014,1014,1013,1014,995,995,1013,1014,1014,1014,1013,1014,1013,1014,995,996,995,996,996,996,1014,995,996,996,997,101,100,660,661,662,663,709,
772,773,774,775,87,994,995,996,1013,995,996,995,1013,995,995,995,995,995,995,996,1014,995,1013,1014,995,996,1014,1014,996,996,996,1014,997,88,87,684,685,686,687,733,
652,653,654,655,100,994,1013,1014,995,996,995,995,996,995,996,1013,995,996,1013,1014,995,996,1013,1013,995,996,996,1014,1014,996,1014,996,997,101,100,708,709,710,711,757,
676,677,678,679,87,994,995,995,1013,995,996,1013,1014,1013,1014,1014,995,996,996,996,1013,1014,995,995,995,995,995,996,1014,1014,995,996,997,88,87,660,661,662,663,781,
700,701,702,703,100,994,995,995,995,1013,1014,996,995,996,996,996,996,996,996,996,996,996,996,996,996,996,996,996,1014,996,996,996,997,101,100,684,685,686,687,805,
724,725,726,727,87,1012,1013,1013,1013,1013,1014,1014,1013,1014,1014,1014,1014,1014,1014,1014,1014,1014,1014,1014,1014,1014,1014,1014,1014,1014,1014,1014,997,88,87,708,709,710,711,661,
839,839,793,794,795,1030,1031,1032,1033,1030,1031,1032,1033,1034,1030,1031,1032,1033,1034,1030,1031,1032,1033,1034,1030,1031,1032,1030,1030,1031,1032,1033,1034,101,100,788,789,839,839,839,
815,816,817,818,819,1048,1049,1050,1051,1048,1049,1050,1051,1052,1048,1049,1050,1051,1052,1048,1049,1050,1051,1052,1048,1049,1050,1048,1048,1049,1050,1051,1052,88,87,812,813,814,815,814,
839,840,841,842,843,101,100,101,100,101,100,101,100,101,100,101,100,101,100,101,100,101,100,101,100,101,100,101,100,101,100,101,100,101,100,836,837,838,839,838,
863,864,865,866,867,88,87,88,87,88,87,88,87,88,87,88,87,88,87,88,87,88,87,88,87,88,87,88,87,88,87,88,87,88,87,860,861,862,863,862
</data>
 </layer>
</map>
